X: 2650
T: Banish Misfortune
R: jig
M: 6/8
K: Dmixolydian
e|fed cAG|A2d cAG|F2D DED|FEF GFG|
A3 cAG|AGA ^cde|fed cAG|Add d2:|
|:e|f2d d^cd|f3 afd|e2c c2d|e2f gfe|
f2g agf|e2f gfe|fed cAG|Add d2:|
|:e|f2g e2f|d2e c2d|A3 G3|F3 GED|
c3 cAG|A2A ^cde|fed cAG|Add d2:|

